src/assets/images/prototype/produits-labellises/3-vitres.svg

<svg width="349" height="689" viewBox="0 0 349 689" fill="none" xmlns="http://www.w3.org/2000/svg">
<path d="M42.8906 39.7437L42.8906 17.696L65.5225 17.5625L68.0522 39.7437L42.8906 39.7437Z" fill="white" stroke="#81EC40" stroke-width="5"/>
<path d="M287.25 225.087C270.452 189.391 228.456 132.872 209.558 109.074L135.49 109.232C126.916 110.982 117.007 114.422 113.493 120.623C104.569 136.371 124.517 138.996 124.517 152.645C124.517 166.293 113.493 158.419 113.493 169.968C113.493 181.517 130.816 190.966 124.517 199.365C118.217 207.764 113.493 213.014 113.493 225.087C113.493 237.161 130.816 237.686 130.816 257.634C130.816 277.582 46.8248 311.703 36.8508 321.677C26.8768 331.651 7.45362 435.066 3.779 487.035C0.10437 539.005 9.55339 632.445 29.5013 662.367C49.4493 692.289 264.152 690.714 308.248 673.391C352.343 656.068 342.894 588.35 345.519 514.332C348.143 440.315 308.248 329.027 308.248 321.677C308.248 314.328 318.222 311.703 320.846 305.404C323.471 299.105 308.248 269.708 287.25 225.087Z" fill="white" stroke="#81EC40" stroke-width="5"/>
<path d="M45.2454 114.323C54.1697 88.6011 66.4182 63.4037 71.4927 46.6055C71.4927 46.6055 75.6505 50.9227 79.1464 51.9795C84.6039 53.6294 96.7454 54.2395 96.7454 54.2395C88.5213 64.9134 78.8418 83.3517 71.4927 97.0003C66.2663 106.706 24.2476 166.293 22.1478 159.994C20.048 153.694 38.515 133.722 45.2454 114.323Z" fill="white"/>
<path d="M71.4927 46.6055L73.2934 44.8713L70.3334 41.7978L69.0995 45.8825L71.4927 46.6055ZM45.2454 114.323L42.8835 113.504L42.8835 113.504L45.2454 114.323ZM22.1478 159.994L19.7761 160.784L22.1478 159.994ZM71.4927 97.0003L69.2915 95.815L69.2915 95.815L71.4927 97.0003ZM96.7454 54.2395L98.7257 55.7653C99.2935 55.0285 99.4052 54.0374 99.0157 53.1926C98.6262 52.3479 97.7999 51.7893 96.8708 51.7426L96.7454 54.2395ZM79.1464 51.9795L79.8698 49.5865L79.8698 49.5865L79.1464 51.9795ZM69.0995 45.8825C66.6061 54.1365 62.3315 64.5071 57.5031 76.1611C52.6967 87.762 47.374 100.561 42.8835 113.504L47.6073 115.143C52.041 102.364 57.3048 89.7028 62.1223 78.0749C66.9179 66.5 71.3048 55.8727 73.8859 47.3284L69.0995 45.8825ZM42.8835 113.504C39.632 122.876 33.5109 132.462 28.2731 140.734C25.6948 144.805 23.2992 148.611 21.6915 151.804C20.8864 153.403 20.2265 154.949 19.8461 156.373C19.4769 157.755 19.2879 159.32 19.7761 160.784L24.5195 159.203C24.4827 159.093 24.4115 158.656 24.6766 157.664C24.9304 156.714 25.4213 155.515 26.1575 154.052C27.6321 151.123 29.8802 147.542 32.4974 143.408C37.6508 135.27 44.1284 125.17 47.6073 115.143L42.8835 113.504ZM19.7761 160.784C19.9904 161.427 20.4515 162.179 21.3276 162.624C22.1586 163.046 22.9777 162.993 23.5244 162.873C24.5259 162.654 25.4604 162.029 26.1801 161.476C27.7399 160.277 29.7054 158.276 31.8767 155.835C36.2668 150.9 41.9313 143.669 47.6522 135.993C59.0602 120.687 70.9808 103.224 73.6939 98.1855L69.2915 95.815C66.7782 100.483 55.0762 117.666 43.6433 133.005C37.9438 140.652 32.3832 147.743 28.1409 152.512C25.996 154.923 24.2934 156.62 23.1331 157.512C22.4926 158.004 22.304 158.022 22.4567 157.989C22.5791 157.962 23.0424 157.887 23.5909 158.166C24.1845 158.467 24.4364 158.954 24.5195 159.203L19.7761 160.784ZM73.6939 98.1855C81.0995 84.4321 90.6596 66.2341 98.7257 55.7653L94.765 52.7136C86.3829 63.5926 76.5842 82.2713 69.2915 95.815L73.6939 98.1855ZM96.7454 54.2395C96.8708 51.7426 96.8709 51.7426 96.871 51.7426C96.8709 51.7426 96.8709 51.7426 96.8708 51.7426C96.8707 51.7426 96.8703 51.7426 96.8697 51.7426C96.8686 51.7425 96.8668 51.7424 96.8643 51.7423C96.8592 51.742 96.8512 51.7416 96.8404 51.7411C96.8188 51.7399 96.7859 51.7382 96.7424 51.7359C96.6554 51.7312 96.5257 51.724 96.358 51.7143C96.0225 51.6948 95.535 51.665 94.9322 51.6241C93.7255 51.5423 92.0618 51.4163 90.2326 51.2398C86.4983 50.8794 82.3308 50.3305 79.8698 49.5865L78.423 54.3726C81.4195 55.2785 86.0515 55.8595 89.7523 56.2166C91.6407 56.3989 93.3535 56.5285 94.5939 56.6126C95.2146 56.6547 95.7183 56.6855 96.068 56.7058C96.243 56.716 96.3795 56.7236 96.473 56.7286C96.5197 56.7311 96.5557 56.733 96.5804 56.7343C96.5927 56.7349 96.6023 56.7354 96.6089 56.7358C96.6122 56.7359 96.6148 56.7361 96.6166 56.7362C96.6175 56.7362 96.6183 56.7363 96.6188 56.7363C96.6191 56.7363 96.6194 56.7363 96.6195 56.7363C96.6197 56.7363 96.6199 56.7363 96.7454 54.2395ZM79.8698 49.5865C78.625 49.2102 77.0335 48.1443 75.5944 46.9635C74.9129 46.4044 74.3294 45.8732 73.9168 45.4821C73.7113 45.2874 73.5503 45.1293 73.443 45.0223C73.3894 44.9689 73.3493 44.9283 73.324 44.9025C73.3113 44.8896 73.3023 44.8804 73.2972 44.8751C73.2946 44.8725 73.293 44.8708 73.2923 44.8702C73.292 44.8698 73.292 44.8698 73.2921 44.87C73.2922 44.87 73.2924 44.8702 73.2926 44.8704C73.2927 44.8705 73.2929 44.8707 73.293 44.8708C73.2932 44.871 73.2934 44.8713 71.4927 46.6055C69.692 48.3397 69.6923 48.34 69.6925 48.3402C69.6927 48.3404 69.693 48.3407 69.6932 48.3409C69.6937 48.3414 69.6942 48.3419 69.6948 48.3426C69.696 48.3438 69.6974 48.3453 69.6991 48.347C69.7025 48.3505 69.7069 48.3551 69.7123 48.3606C69.7231 48.3718 69.7379 48.3869 69.7565 48.4059C69.7938 48.4438 69.8465 48.4971 69.9134 48.5638C70.0471 48.697 70.2382 48.8845 70.4771 49.111C70.9534 49.5624 71.6278 50.1766 72.4228 50.8289C73.9365 52.0709 76.1719 53.6921 78.423 54.3726L79.8698 49.5865Z" fill="#81EC40"/>
<path d="M222.156 91.7513C212.497 98.4706 210.783 106.1 211.133 109.075L135.54 109.075C132.215 96.8258 123.886 70.3335 117.167 62.3543C108.768 52.3802 100.894 55.005 81.471 52.3803C65.9326 50.2805 64.8477 21.0586 66.2476 6.71008C106.143 3.91037 190.975 -0.00921919 211.133 6.71009C236.33 15.1092 276.226 58.6797 271.501 72.3283C266.777 85.9769 234.23 83.3522 222.156 91.7513Z" fill="white" stroke="#81EC40" stroke-width="5"/>
</svg>

<svg width="349" height="689" fill="none" xmlns="http://www.w3.org/2000/svg"><path d="M42.89 39.744V17.696l22.632-.134 2.53 22.182H42.891zm244.36 185.343c-16.798-35.696-58.794-92.215-77.692-116.013l-74.068.158c-8.574 1.75-18.483 5.19-21.997 11.391-8.924 15.748 11.024 18.373 11.024 32.022 0 13.648-11.024 5.774-11.024 17.323s17.323 20.998 11.024 29.397c-6.3 8.399-11.024 13.649-11.024 25.722 0 12.074 17.323 12.599 17.323 32.547 0 19.948-83.991 54.069-93.965 64.043-9.974 9.974-29.397 113.389-33.072 165.358-3.675 51.97 5.774 145.41 25.722 175.332 19.948 29.922 234.651 28.347 278.747 11.024 44.095-17.323 34.646-85.041 37.271-159.059 2.624-74.017-37.271-185.305-37.271-192.655 0-7.349 9.974-9.974 12.598-16.273 2.625-6.299-12.598-35.696-33.596-80.317z" fill="#fff" stroke="#81EC40" stroke-width="5"/><path d="M45.245 114.323c8.925-25.722 21.173-50.92 26.248-67.718 0 0 4.157 4.318 7.653 5.375 5.458 1.65 17.6 2.26 17.6 2.26C88.52 64.912 78.841 83.352 71.492 97c-5.227 9.706-47.245 69.293-49.345 62.994-2.1-6.3 16.367-26.272 23.097-45.671z" fill="#fff"/><path d="M71.493 46.605l1.8-1.734-2.96-3.073-1.233 4.084 2.393.724zm-26.248 67.718l-2.361-.819 2.361.819zm-23.097 45.671l-2.372.79 2.372-.79zM71.493 97l-2.201-1.185 2.2 1.185zm25.252-42.76l1.98 1.525a2.5 2.5 0 00-1.854-4.022l-.126 2.496zm-17.599-2.26l.724-2.393-.724 2.392zM69.1 45.883c-2.494 8.253-6.768 18.624-11.597 30.278-4.806 11.601-10.129 24.4-14.62 37.343l4.724 1.639c4.434-12.779 9.698-25.44 14.515-37.068 4.796-11.575 9.183-22.202 11.764-30.747L69.1 45.882zm-26.216 67.621c-3.252 9.372-9.373 18.958-14.61 27.23-2.58 4.071-4.975 7.877-6.582 11.07-.806 1.599-1.465 3.145-1.846 4.569-.37 1.382-.558 2.947-.07 4.411l4.744-1.581c-.037-.11-.108-.547.157-1.539.253-.95.744-2.149 1.48-3.612 1.475-2.929 3.723-6.51 6.34-10.644 5.154-8.138 11.631-18.238 15.11-28.265l-4.724-1.639zm-23.108 47.28c.214.643.675 1.395 1.552 1.84.83.422 1.65.369 2.196.249 1.002-.219 1.936-.844 2.656-1.397 1.56-1.199 3.525-3.2 5.697-5.641 4.39-4.935 10.054-12.166 15.775-19.842 11.408-15.306 23.329-32.769 26.042-37.807l-4.403-2.371c-2.513 4.668-14.215 21.851-25.648 37.19-5.7 7.647-11.26 14.738-15.502 19.507-2.145 2.411-3.848 4.108-5.008 5-.64.492-.829.51-.676.477.122-.027.585-.102 1.134.177.593.301.845.788.928 1.037l-4.743 1.581zm53.918-62.598C81.1 84.431 90.66 66.234 98.726 55.766l-3.961-3.052c-8.382 10.879-18.18 29.557-25.474 43.101l4.403 2.37zm23.051-43.947l.126-2.496h-.001a2.147 2.147 0 00-.03-.002l-.098-.005a103.708 103.708 0 01-1.81-.112 168.1 168.1 0 01-4.7-.384c-3.734-.36-7.901-.91-10.362-1.654l-1.447 4.787c2.996.906 7.629 1.486 11.33 1.844a172.839 172.839 0 006.856.519h.01l.126-2.496zM79.87 49.587c-1.245-.377-2.837-1.443-4.276-2.623a31.73 31.73 0 01-2.297-2.089l-.005-.005h.001l-1.8 1.736-1.8 1.734.002.003.004.004.013.014.044.045.157.158a36.801 36.801 0 002.51 2.265c1.513 1.242 3.749 2.863 6 3.544l1.447-4.786z" fill="#81EC40"/><path d="M222.156 91.751c-9.659 6.72-11.373 14.349-11.023 17.324H135.54c-3.325-12.25-11.654-38.742-18.373-46.72-8.399-9.975-16.273-7.35-35.696-9.975-15.538-2.1-16.623-31.321-15.223-45.67 39.895-2.8 124.727-6.72 144.885 0 25.197 8.4 65.093 51.97 60.368 65.618-4.724 13.649-37.271 11.024-49.345 19.423z" fill="#fff" stroke="#81EC40" stroke-width="5"/></svg>
